src/img/white-people.svg

<svg width="49" height="38" viewBox="0 0 49 38" fill="none" xmlns="http://www.w3.org/2000/svg">
<path fill-rule="evenodd" clip-rule="evenodd" d="M46.417 37.6667C46.417 37.6667 49.5003 37.6667 49.5003 34.5556C49.5003 31.4445 46.417 22.1112 34.0837 22.1112C21.7503 22.1112 18.667 31.4445 18.667 34.5556C18.667 37.6667 21.7503 37.6667 21.7503 37.6667H46.417ZM21.8182 34.5556H46.3492C46.3636 34.5539 46.378 34.5518 46.3923 34.5494L46.417 34.5432C46.4108 33.7218 45.9021 31.3387 44.0737 29.192C42.3717 27.1791 39.3808 25.2223 34.0837 25.2223C28.7896 25.2223 25.7987 27.1823 24.0937 29.192C22.2652 31.3387 21.7534 33.7249 21.7503 34.5432C21.7729 34.5475 21.7955 34.5517 21.8182 34.5556ZM34.0837 15.8889C35.7192 15.8889 37.2877 15.2334 38.4441 14.0665C39.6006 12.8996 40.2503 11.3169 40.2503 9.66671C40.2503 8.01647 39.6006 6.43382 38.4441 5.26693C37.2877 4.10004 35.7192 3.44448 34.0837 3.44448C32.4482 3.44448 30.8796 4.10004 29.7232 5.26693C28.5667 6.43382 27.917 8.01647 27.917 9.66671C27.917 11.3169 28.5667 12.8996 29.7232 14.0665C30.8796 15.2334 32.4482 15.8889 34.0837 15.8889ZM43.3337 9.66671C43.3337 10.8924 43.0944 12.106 42.6295 13.2384C42.1647 14.3708 41.4833 15.3997 40.6244 16.2664C39.7655 17.133 38.7457 17.8205 37.6235 18.2896C36.5012 18.7586 35.2984 19 34.0837 19C32.8689 19 31.6661 18.7586 30.5438 18.2896C29.4216 17.8205 28.4019 17.133 27.5429 16.2664C26.684 15.3997 26.0026 14.3708 25.5378 13.2384C25.0729 12.106 24.8337 10.8924 24.8337 9.66671C24.8337 7.19135 25.8082 4.81738 27.5429 3.06704C29.2776 1.3167 31.6304 0.333374 34.0837 0.333374C36.5369 0.333374 38.8897 1.3167 40.6244 3.06704C42.3591 4.81738 43.3337 7.19135 43.3337 9.66671ZM21.553 22.9823C20.3196 22.5904 19.0482 22.3328 17.7605 22.2138C17.0369 22.1444 16.3105 22.1101 15.5837 22.1112C3.25033 22.1112 0.166992 31.4445 0.166992 34.5556C0.166992 36.6307 1.19374 37.6667 3.25033 37.6667H16.2497C15.7926 36.6955 15.5646 35.6306 15.5837 34.5556C15.5837 31.4134 16.7461 28.2027 18.9445 25.5209C19.6937 24.6063 20.5663 23.7507 21.553 22.9823ZM15.337 25.2223C10.194 25.2845 7.27408 27.2134 5.59366 29.192C3.75291 31.3512 3.25033 33.7436 3.25033 34.5556H12.5003C12.5003 31.3045 13.4962 28.0658 15.337 25.2223ZM4.79199 11.2223C4.79199 8.74691 5.76654 6.37294 7.50125 4.6226C9.23597 2.87226 11.5887 1.88893 14.042 1.88893C16.4952 1.88893 18.848 2.87226 20.5827 4.6226C22.3174 6.37294 23.292 8.74691 23.292 11.2223C23.292 13.6976 22.3174 16.0716 20.5827 17.8219C18.848 19.5723 16.4952 20.5556 14.042 20.5556C11.5887 20.5556 9.23597 19.5723 7.50125 17.8219C5.76654 16.0716 4.79199 13.6976 4.79199 11.2223ZM14.042 5.00004C12.4065 5.00004 10.838 5.65559 9.6815 6.82249C8.52503 7.98938 7.87533 9.57203 7.87533 11.2223C7.87533 12.8725 8.52503 14.4551 9.6815 15.622C10.838 16.7889 12.4065 17.4445 14.042 17.4445C15.6775 17.4445 17.246 16.7889 18.4025 15.622C19.559 14.4551 20.2087 12.8725 20.2087 11.2223C20.2087 9.57203 19.559 7.98938 18.4025 6.82249C17.246 5.65559 15.6775 5.00004 14.042 5.00004Z" fill="white"/>
</svg>

<svg width="49" height="38" fill="none" xmlns="http://www.w3.org/2000/svg"><path fill-rule="evenodd" clip-rule="evenodd" d="M46.417 37.667s3.083 0 3.083-3.111S46.417 22.11 34.084 22.11c-12.334 0-15.417 9.334-15.417 12.445 0 3.11 3.083 3.11 3.083 3.11h24.667Zm-24.599-3.111H46.35a.894.894 0 0 0 .043-.007l.025-.006c-.006-.821-.515-3.204-2.343-5.351-1.702-2.013-4.693-3.97-9.99-3.97-5.294 0-8.285 1.96-9.99 3.97-1.829 2.147-2.34 4.533-2.344 5.351l.068.013Zm12.266-18.667a6.138 6.138 0 0 0 4.36-1.822 6.25 6.25 0 0 0 1.806-4.4 6.25 6.25 0 0 0-1.806-4.4 6.139 6.139 0 0 0-4.36-1.823 6.139 6.139 0 0 0-4.36 1.823 6.25 6.25 0 0 0-1.807 4.4c0 1.65.65 3.233 1.806 4.4a6.139 6.139 0 0 0 4.36 1.822Zm9.25-6.222c0 1.225-.24 2.439-.705 3.571a9.34 9.34 0 0 1-2.005 3.028 9.247 9.247 0 0 1-3 2.024 9.18 9.18 0 0 1-7.08 0 9.248 9.248 0 0 1-3.001-2.024 9.34 9.34 0 0 1-2.005-3.028 9.405 9.405 0 0 1-.704-3.571c0-2.476.974-4.85 2.709-6.6a9.208 9.208 0 0 1 6.54-2.734c2.454 0 4.807.984 6.541 2.734a9.376 9.376 0 0 1 2.71 6.6ZM21.553 22.982a17.99 17.99 0 0 0-3.793-.768c-.723-.07-1.45-.104-2.176-.103C3.25 22.111.167 31.445.167 34.556c0 2.075 1.027 3.11 3.083 3.11h13a7.014 7.014 0 0 1-.666-3.11c0-3.143 1.162-6.353 3.36-9.035.75-.915 1.622-1.77 2.609-2.539Zm-6.216 2.24c-5.143.063-8.063 1.991-9.743 3.97-1.841 2.16-2.344 4.552-2.344 5.364h9.25c0-3.251.996-6.49 2.837-9.334Zm-10.545-14c0-2.475.975-4.85 2.71-6.6a9.208 9.208 0 0 1 6.54-2.733c2.453 0 4.806.983 6.54 2.734a9.376 9.376 0 0 1 2.71 6.6c0 2.475-.975 4.849-2.71 6.599a9.208 9.208 0 0 1-6.54 2.734 9.208 9.208 0 0 1-6.54-2.734 9.376 9.376 0 0 1-2.71-6.6ZM14.042 5a6.139 6.139 0 0 0-4.36 1.822 6.25 6.25 0 0 0-1.807 4.4c0 1.65.65 3.233 1.806 4.4a6.139 6.139 0 0 0 4.361 1.823 6.139 6.139 0 0 0 4.36-1.823 6.25 6.25 0 0 0 1.807-4.4 6.25 6.25 0 0 0-1.806-4.4A6.139 6.139 0 0 0 14.041 5Z" fill="#fff"/></svg>
